!!!COM: Sousa, John Phillip
!!!CDT: 1854/11/05/-1932/04/08/
!!!OTL: Washington Post March
!!!ODT: 1889///
!!!OMD: Tempo marziale
!!!OGN: Two-step 
!!!PPR: Harry Coleman, 
!!!PPP: 228 N 9th Street, Piladelphia, Pennsylvania
!!!WIKI: http://en.wikipedia.org/wiki/Washington_post_march
!!!ONB: Arrangement for keyboard
**kern	**kern	**dynam
*staff2	*staff1	*staff1/2
*Ipiano	*Ipiano	*Ipiano
*clefF4	*clefG2	*clefG2
*k[f#]	*k[f#]	*k[f#]
*M6/8	*M6/8	*M6/8
*MM172	*MM172	*MM172
=1-	=1-	=1-
4DD/ 4D/	4dd\ 4ddd\	ff
8DD#/ 8D#/	8dd#\ 8ddd#\	.
[4.EE/ [4.E/	[4.ee\ [4.eee\	.
=2	=2	=2
4EE/] 4E/]	4ee\] 4eee\]	.
8EE-/ 8E-/	8ee-\ 8eee-\	.
4DD/ 4D/	4dd\ 4ddd\	.
8CC#/ 8C#/	8cc#\ 8ccc#\	.
=3	=3	=3
4DD/ 4D/	4dd\ 4ddd\	.
8DD#/ 8D#/	8dd#\ 8ddd#\	.
[4.EE/ [4.E/	[4.ee\ [4.eee\	.
=4	=4	=4
4EE/] 4E/]	4ee\] 4eee\]	.
8EE-/ 8E-/	8ee-\ 8eee-\	.
4DD/ 4D/	4dd\ 4ddd\	.
8CC#/ 8C#/	8cc#\ 8ccc#\	.
=5	=5	=5
4DD/ 4D/	4dd\ 4ddd\	.
8DD#/ 8D#/	8dd#\ 8ddd#\	.
4EE/ 4E/	4ee\ 4eee\	.
8EE-/ 8E-/	8ee-\ 8eee-\	.
=6	=6	=6
4DD/ 4D/	4dd\ 4ddd\	.
8CC#/ 8C#/	8cc#\ 8ccc#\	.
4CCn/ 4Cn/	4ccn\ 4cccn\	.
8BBB/ 8BB/	8b\ 8bb\	.
=7	=7	=7
4AAA/ 4AA/	4a\ 4aa\	.
8r	8r	.
4DD/ 4D/	4dd\ 4ff#\ 4aa\ 4ddd\	.
8r	8r	.
=8	=8	=8
2.r	4r	.
.	8dd\	mf
.	(8dd\L	.
.	8cc#\	.
.	8dd\J)	.
=9	=9	=9
8CC\L	8cc\ 8ee\	.
8r	8r	.
8A\ 8c\ 8e\J	8r	.
8A\ 8c\ 8e\L	[4.cc\ (4.ee\	.
8r	.	.
8A\ 8c\ 8e\J	.	.
=10	=10	=10
8DD\L	8cc\] 8ff#\)	.
8r	8r	.
8A\ 8c\ 8d\J	8r	.
8A\ 8c\ 8d\L	4.cc\ (4.ff#\	.
8r	.	.
8A\ 8c\ 8d\J	.	.
=11	=11	=11
8GG\L	&(8b\&) 8aa\)	.
8r	8r	.
8G\ 8B\ 8d\J	8r	.
8G\ 8B\ 8d\L	[4.b\ [4.gg\	.
8r	.	.
8G\ 8B\ 8d\J	.	.
=12	=12	=12
8GG\L	4b\] 4gg\]	p
8r	.	.
8G\ 8B\ 8d\J	8gg\	.
8G\ 8B\ 8d\L	8gg\L	.
8r	8ff#\	.
8G\ 8B\ 8d\J	8ee\J	.
=13	=13	=13
8F#\L	8cc\ 8dd\L	.
8r	8r	.
8c\ 8d\J	8cc\ 8dd#\J	.
8D\L	8cc\ 8ee\L	.
8r	8r	.
8c\ 8d\J	8cc\ 8ee-\J	.
=14	=14	=14
8F#\L	4cc\ 4dd\	.
8r	.	.
8c\ 8d\J	8cc\ 8dd\	.
8D\L	8cc\ 8dd\L	.
8r	8cc\ 8dd\	.
8c\ 8d\J	8cc\ 8dd\J	.
=15	=15	=15
8G\L	8b\ 8dd\L	.
8r	8r	.
8B\ 8d\J	8b\ 8dd#\J	.
8D\L	8b\ 8ee\L	.
8r	8r	.
8B\ 8d\J	8b\ 8ee-\J	.
=16	=16	=16
8G\L	4b\ 4dd\	.
8r	.	.
8B\ 8d\J	8dd\	.
8D\L	8dd\L	.
8r	8cc#\	.
8B\ 8d\J	8dd\J	.
=17	=17	=17
8C#\L	8a\ 8ee\	.
8r	8r	.
8G\ 8A\J	8r	.
8C#\L	[4.a\ (4.ee\	.
8r	.	.
8G\ 8A\J	.	.
=18	=18	=18
8Cn\L	8a\] 8ff#\)	.
8r	8r	.
8F#\ 8A\J	8r	.
8C\L	[4.a\ 4.dd\ (4.ff#\	.
8r	.	.
8F#\ 8A\J	.	.
=19	=19	=19
8BB\L	8a\] 8dd\ 8aa\)	.
8r	8r	.
8D\ 8G\J	8r	.
8BB\L	[4.g\ [4.dd\ [4.gg\	.
8r	.	.
8D\ 8G\J	.	.
=20	=20	=20
8BB-\L	4g\] 4dd\] 4gg\]	<
8r	.	.
8D\ 8G\J	8gg\	.
8BB-\L	8gg\L	.
8r	8ff#\	.
8D\ 8G\J	8gg\J	.
=21	=21	=21
8AA\L	4ff#\	ff
8r	.	.
8D\ 8F#\ 8A\J	8f#\ 8ff#\	.
8AA\L	8f#\ 8ff#\L	.
8r	8g\ 8gg\	.
8D\ 8F#\ 8A\J	8g#\ 8gg#\J	.
=22	=22	=22
8AA\L	4a\ 4aa\	.
8r	.	.
8E\ 8G\ 8A\J	8a\ 8aa\	.
8A\L	8a\ 8aa\L	.
8r	8b\ 8bb\	.
8E\ 8G\ 8A\J	8cc#\ 8ccc#\J	.
=23	=23	=23
8D\ 8F#\ 8A\L	8dd\ 8ddd\L	.
8r	8r	.
8AA\J	8gg\ 8aa\ 8ccc#\J	.
8DD/ 8D/L	8ff#\ 8aa\ 8ddd\L	.
8r	8r	.
8AA/J	8gg\ 8aa\ 8ccc#\J	.
=24	=24	=24
4DD/ 4D/	4ff#\ 4aa\ 4ddd\	mf
8r	8dd\	.
4r	(8dd\L	.
.	8cc#\	.
8r	8dd\J)	.
=25	=25	=25
8CC\L	8cc\ 8ee\	.
8r	8r	.
8A\ 8c\ 8e\J	8r	.
8A\ 8c\ 8e\L	[4.cc\ (4.ee\	.
8r	.	.
8A\ 8c\ 8e\J	.	.
=26	=26	=26
8DD\L	8cc\] 8ff#\)	.
8r	8r	.
8A\ 8c\ 8d\J	8r	.
8A\ 8c\ 8d\L	4.cc\ (4.ff#\	.
8r	.	.
8A\ 8c\ 8d\J	.	.
=27	=27	=27
8GG\L	&(8b\&) 8aa\)	.
8r	8r	.
8G\ 8B\ 8d\J	8r	.
8G\ 8B\ 8d\L	[4.b\ [4.gg\	.
8r	.	.
8G\ 8B\ 8d\J	.	.
=28	=28	=28
8GG\L	4b\] 4gg\]	.
8r	.	.
8G\ 8B\ 8d\J	8gg\	p
8G\ 8B\ 8d\L	8gg\L	.
8r	8ff#\	.
8G\ 8B\ 8d\J	8ee\J	.
=29	=29	=29
8F#\L	8cc\ 8dd\L	.
8r	8r	.
8c\ 8d\J	8cc\ 8dd#\J	.
8D\L	8cc\ 8ee\L	.
8r	8r	.
8c\ 8d\J	8cc\ 8ee-\J	.
=30	=30	=30
8F#\L	4cc\ 4dd\	.
8r	.	.
8c\ 8d\J	8cc\ 8dd\	.
8D\L	8cc\ 8dd\L	.
8r	8cc\ 8dd\	.
8c\ 8d\J	8cc\ 8dd\J	.
=31	=31	=31
8G\L	8b\ 8dd\L	.
8r	8r	.
8B\ 8d\J	8b\ 8dd#\J	.
8D\L	8b\ 8ee\L	.
8r	8r	.
8B\ 8d\J	8b\ 8ee-\J	.
=32	=32	=32
8G\L	4b\ 4dd\	.
8r	.	.
8B\ 8d\J	8dd\	.
8D\L	8dd\L	.
8r	8cc#\	.
8B\ 8d\J	8dd\J	.
=33	=33	=33
8C#\L	8a\ 8ee\	.
8r	8r	.
8G\ 8A\J	8r	.
8C#\L	[4.a\ (4.ee\	.
8r	.	.
8G\ 8A\J	.	.
=34	=34	=34
8Cn\L	8a\] 8ff#\)	.
8r	8r	.
8F#\ 8A\J	8r	.
8C\L	[4.a\ 4.dd\ (4.ff#\	.
8r	.	.
8F#\ 8A\J	.	.
=35	=35	=35
8BB\L	8a\] &(8dd\&) 8aa\)	.
8r	8r	.
8D\ 8G\J	8r	.
8BB\L	[4.g\ [4.dd\ [4.gg\	.
8r	.	.
8D\ 8G\J	.	.
=36	=36	=36
8BB-\L	4g\] 4dd\] 4gg\]	<
8r	.	.
8D\ 8G\J	8gg\	.
8BB-\L	8gg\L	.
8r	8ff#\	.
8D\ 8G\J	8gg\J	.
=37	=37	=37
8AA\L	4ff#\	ff
8r	.	.
8D\ 8F#\ 8A\J	8f#\ 8ff#\	.
8AA\L	8f#\ 8ff#\L	.
8r	8g\ 8gg\	.
8D\ 8F#\ 8A\J	8g#\ 8gg#\J	.
=38	=38	=38
8AA\L	4a\ 4aa\	.
8r	.	.
8E\ 8G\ 8A\J	8a\ 8aa\	.
8AA\L	8a\ 8aa\L	.
8r	8b\ 8bb\	.
8E\ 8G\ 8A\J	8cc#\ 8ccc#\J	.
=39	=39	=39
8D\ 8F#\ 8A\L	8dd\ 8ddd\L	.
8r	8r	.
8AA\J	8gg\ 8aa\ 8ccc#\J	.
8DD/ 8D/L	8ff#\ 8aa\ 8ddd\L	.
8r	8r	.
8AA/J	8gg\ 8aa\ 8ccc#\J	.
=40	=40	=40
4DD/ 4D/	4ff#\ 4aa\ 4ddd\	.
8r	8dd\	.
4r	4d/ 4dd/	.
8r	8d/ 8dd/	.
=41	=41	=41
8FF#\L	4.d/ 4.dd/	ff
8r	.	.
8A\ 8c\ 8d\J	.	.
8D\L	4f#\ 4ff#\	.
8r	.	.
8A\ 8c\ 8d\J	8a\ 8aa\	.
=42	=42	=42
8FF#\L	4.ee\ 4.eee\	.
8r	.	.
8A\ 8c\ 8d\J	.	.
8D\L	4.ee\ 4.eee\	.
8r	.	.
8A\ 8c\ 8d\J	.	.
=43	=43	=43
8GG\L	[2.ee\ [2.eee\	.
8r	.	.
8G\ 8B\ 8d\J	.	.
8D\L	.	.
8r	.	.
8G\ 8B\ 8d\J	.	.
=44	=44	=44
8GG\L	4ee\] 4eee\]	.
8r	.	.
8G\ 8B\ 8d\J	8dd\ 8ddd\	.
8D\L	8dd\ 8ddd\L	.
8r	8b\ 8bb\	.
8G\ 8B\ 8d\J	8dd\ 8ddd\J	.
=45	=45	=45
8FF#\L	[2.ee\ [2.eee\	.
8r	.	.
8A\ 8c\ 8d\J	.	.
8D\L	.	.
8r	.	.
8A\ 8c\ 8d\J	.	.
=46	=46	=46
8FF#\L	4ee\] 4eee\]	.
8r	.	.
8A\ 8c\ 8d\J	8cc\ 8ccc\	.
8D\L	8cc\ 8ccc\L	.
8r	8a\ 8aa\	.
8A\ 8c\ 8d\J	8cc\ 8ccc\J	.
=47	=47	=47
8GG\L	[2.ee\ [2.eee\	.
8r	.	.
8G\ 8B\ 8d\J	.	.
8D\L	.	.
8r	.	.
8G\ 8B\ 8d\J	.	.
=48	=48	=48
8GG\L	4ee\] 4eee\]	.
8r	.	.
8G\ 8B\ 8d\J	8dd\ 8ddd\	.
8D\L	4b\ 4bb\	.
8r	.	.
8G\ 8B\ 8d\J	8g\ 8gg\	.
=49	=49	=49
8FF#\L	4.d/ 4.dd/	.
8r	.	.
8A\ 8c\ 8d\J	.	.
8D\L	4f#\ 4ff#\	.
8r	.	.
8A\ 8c\ 8d\J	8a\ 8aa\	.
=50	=50	=50
8FF#\L	4.ee\ 4.eee\	.
8r	.	.
8A\ 8c\ 8d\J	.	.
8D\L	4.ee\ 4.eee\	.
8r	.	.
8A\ 8c\ 8d\J	.	.
=51	=51	=51
8GG\L	[2.ee\ [2.eee\	.
8r	.	.
8G\ 8B\ 8d\J	.	.
8D\L	.	.
8r	.	.
8G\ 8B\ 8d\J	.	.
=52	=52	=52
8GG\L	4ee\] 4eee\]	.
8r	.	.
8G\ 8B\ 8d\J	8dd\ 8ddd\	.
8D\L	8dd\ 8ddd\L	.
8r	8b\ 8bb\	.
8G\ 8B\ 8d\J	8dd\ 8ddd\J	.
=53	=53	=53
8EE-\ 8E-\L	4.gg\ 4.ggg\	.
8r	.	.
8G\ 8B-\J	.	.
8EE-\ 8E-\L	4g\ (4gg\	.
8r	.	.
8G\ 8B-\J	8a\ 8aa\)	.
=54	=54	=54
8DD\ 8D\L	4.b\ 4.bb\	.
8r	.	.
8G\ 8Bn\J	.	.
8D\L	4.g\ 4.gg\	.
8r	.	.
8G\ 8B\J	.	.
=55	=55	=55
8FF#\L	2.a\ 2.aa\	.
8r	.	.
8F#\ 8c\ 8d\J	.	.
8D\L	.	.
8r	.	.
8F#\ 8c\ 8d\J	.	.
=56	=56	=56
4G\ 4B\ 4d\	4g\ 4gg\	.
8r	8g\ 8gg\	.
4r	8g\ 8gg\L	.
.	8f#\ 8ff#\	.
8r	8e\ 8ee\J	.
=57	=57	=57
8FF#\L	4.d/ 4.dd/	ff
8r	.	.
8A\ 8c\ 8d\J	.	.
8D\L	4f#\ 4ff#\	.
8r	.	.
8A\ 8c\ 8d\J	8a\ 8aa\	.
=58	=58	=58
8FF#\L	4.ee\ 4.eee\	.
8r	.	.
8A\ 8c\ 8d\J	.	.
8D\L	4.ee\ 4.eee\	.
8r	.	.
8A\ 8c\ 8d\J	.	.
=59	=59	=59
8GG\L	[2.ee\ [2.eee\	.
8r	.	.
8G\ 8B\ 8d\J	.	.
8D\L	.	.
8r	.	.
8G\ 8B\ 8d\J	.	.
=60	=60	=60
8GG\L	4ee\] 4eee\]	.
8r	.	.
8G\ 8B\ 8d\J	8dd\ 8ddd\	.
8D\L	8dd\ 8ddd\L	.
8r	8b\ 8bb\	.
8G\ 8B\ 8d\J	8dd\ 8ddd\J	.
=61	=61	=61
8FF#\L	[2.ee\ [2.eee\	.
8r	.	.
8A\ 8c\ 8d\J	.	.
8D\L	.	.
8r	.	.
8A\ 8c\ 8d\J	.	.
=62	=62	=62
8FF#\L	4ee\] 4eee\]	.
8r	.	.
8A\ 8c\ 8d\J	8cc\ 8ccc\	.
8D\L	8cc\ 8ccc\L	.
8r	8a\ 8aa\	.
8A\ 8c\ 8d\J	8cc\ 8ccc\J	.
=63	=63	=63
8GG\L	[2.ee\ [2.eee\	.
8r	.	.
8G\ 8B\ 8d\J	.	.
8D\L	.	.
8r	.	.
8G\ 8B\ 8d\J	.	.
=64	=64	=64
8GG\L	4ee\] 4eee\]	.
8r	.	.
8G\ 8B\ 8d\J	8dd\ 8ddd\	.
8D\L	4b\ 4bb\	.
8r	.	.
8G\ 8B\ 8d\J	8g\ 8gg\	.
=65	=65	=65
8FF#\L	4.d/ 4.dd/	.
8r	.	.
8A\ 8c\ 8d\J	.	.
8D\L	4f#\ 4ff#\	.
8r	.	.
8A\ 8c\ 8d\J	8a\ 8aa\	.
=66	=66	=66
8FF#\L	4.ee\ 4.eee\	.
8r	.	.
8A\ 8c\ 8d\J	.	.
8D\L	4.ee\ 4.eee\	.
8r	.	.
8A\ 8c\ 8d\J	.	.
=67	=67	=67
8GG\L	[2.ee\ [2.eee\	.
8r	.	.
8G\ 8B\ 8d\J	.	.
8D\L	.	.
8r	.	.
8G\ 8B\ 8d\J	.	.
=68	=68	=68
8GG\L	4ee\] 4eee\]	.
8r	.	.
8G\ 8B\ 8d\J	8dd\ 8ddd\	.
8D\L	8dd\ 8ddd\L	.
8r	8b\ 8bb\	.
8G\ 8B\ 8d\J	8dd\ 8ddd\J	.
=69	=69	=69
8EE-\ 8E-\L	4.gg\ 4.ggg\	.
8r	.	.
8G\ 8B-\J	.	.
8EE-\ 8E-\L	4g\ (4gg\	.
8r	.	.
8G\ 8B-\J	8a\ 8aa\)	.
=70	=70	=70
8DD\ 8D\L	4.b\ 4.bb\	.
8r	.	.
8G\ 8Bn\J	.	.
8D\L	4.g\ 4.gg\	.
8r	.	.
8G\ 8B\J	.	.
=71	=71	=71
8FF#\L	2.a\ 2.aa\	.
8r	.	.
8F#\ 8c\ 8d\J	.	.
8D\L	.	.
8r	.	.
8F#\ 8c\ 8d\J	.	.
=72	=72	=72
4G\ 4B\ 4d\	4g\ 4gg\	.
8r	(8g/	p
4r	4f#/	.
8r	8g/	.
=73	=73	=73
8C\L	8e/L)	.
8r	8r	.
8E\ 8G\J	(8g/J	.
8E\ 8G\L	4f#/	.
8r	.	.
8E\ 8G\J	8g/)	.
=74	=74	=74
*k[]	*k[]	*k[]
8D\L	(4.f/	.
8r	.	.
8F\ 8G\J	.	.
8F\ 8G\L	4.B/	.
8r	.	.
8F\ 8G\J	.	.
=75	=75	=75
8E\L	4.c/	.
8r	.	.
8G\J	.	.
8BB\L	4.d/)	.
8r	.	.
8F\ 8G\J	.	.
=76	=76	=76
8C\L	4e/	.
8r	.	.
8E\ 8G\J	(8g/	.
8E\ 8G\L	4f#/	.
8r	.	.
8E\ 8G\J	8g/)	.
=77	=77	=77
8C\L	8e'/L	.
8r	8g'/	.
8E\ 8G\J	8cc'/J	.
8E\ 8G\L	8ee'\L	.
8r	8cc'\	.
8E\ 8G\J	8g'\J	.
=78	=78	=78
8D\L	(4.f/	.
8r	.	.
8F\ 8G\J	.	.
8F\ 8G\L	4.B/	.
8r	.	.
8F\ 8G\J	.	.
=79	=79	=79
8E\L	2.g/	.
8r	.	.
8G\ 8c\J	.	.
8G\ 8c\L	.	.
8r	.	.
8G\ 8c\J	.	.
=80	=80	=80
8C\L	4g/)	.
8r	.	.
8E\ 8G\ 8c\J	(8g/	.
8E\ 8G\ 8c\L	4f#/	.
8r	.	.
8E\ 8G\ 8c\J	8g/)	.
=81	=81	=81
8F\L	8a/L	.
8r	8r	.
8A\ 8c\J	(8a/J	.
8A\ 8c\L	4g#/	.
8r	.	.
8A\ 8c\J	8a/)	.
=82	=82	=82
8E\L	8a/L	.
8r	8r	.
8G\ 8A\ 8c#\J	(8a/J	.
8G\ 8A\ 8c#\L	4g#/	.
8r	.	.
8G\ 8A\ 8c#\J	8a/)	.
=83	=83	=83
8D\L	(4.a/	.
8r	.	.
8F\ 8A\ 8d\J	.	.
8F\ 8A\ 8d\L	4.ff\	.
8r	.	.
8F\ 8A\ 8d\J	.	.
=84	=84	=84
8E\L	4ee\	.
8r	.	.
8G\ 8A\ 8c#\J	8cc#\	.
8F\L	4dd\	.
8r	.	.
8A\ 8d\J	8a/	.
=85	=85	=85
8G\L	8g/L)	.
8r	8r	.
8c\ 8e\J	(8g/J	.
8c\ 8e\L	4f#/	.
8r	.	.
8c\ 8e\J	8g/)	.
=86	=86	=86
8G\ 8c\ 8e-\L	8f#/ 8a/L	.
8r	8r	.
8G\ 8c\ 8e-\J	8f#/ 8a/J	.
8G\ 8B\ 8d\L	8fn/ 8b/L	.
8r	8r	.
8G\ 8B\ 8d\J	8f/ 8g/J	.
=87	=87	=87
4C\ (4c\	4e/ 4cc/	.
8GG/ 8G/	8r	.
4FF#/ 4F#/	4r	.
8GG/ 8G/	8r	.
=88	=88	=88
4GGG/ 4GG/)	4r	.
8r	8g/	mf
4r	4f#/	.
8r	8g/	.
=89	=89	=89
8C\L	&(8e/&)	.
8r	8r	.
8E\ 8G\J	(8g/	.
8E\ 8G\L	4f#/	.
8r	.	.
8E\ 8G\J	8g/)	.
=90	=90	=90
8D\L	(4.f/	.
8r	.	.
8F\ 8G\J	.	.
8F\ 8G\L	4.B/	.
8r	.	.
8F\ 8G\J	.	.
=91	=91	=91
8E\L	4.c/	.
8r	.	.
8G\J	.	.
8BB\L	4.d/)	.
8r	.	.
8F\ 8G\J	.	.
=92	=92	=92
8C\L	4e/	.
8r	.	.
8E\ 8G\J	(8g/	.
8E\ 8G\L	4f#/	.
8r	.	.
8E\ 8G\J	8g/)	.
=93	=93	=93
8C\L	8e'/L	.
8r	8g'/	.
8E\ 8G\J	8cc'/J	.
8E\ 8G\L	8ee'\L	.
8r	8cc'\	.
8E\ 8G\J	8g'\J	.
=94	=94	=94
8D\L	(4.f/	.
8r	.	.
8F\ 8G\J	.	.
8F\ 8G\L	4.B/	.
8r	.	.
8F\ 8G\J	.	.
=95	=95	=95
8E\L	[2.g/	.
8r	.	.
8G\ 8c\J	.	.
8G\ 8c\L	.	.
8r	.	.
8G\ 8c\J	.	.
=96	=96	=96
8C\L	4g/])	.
8r	.	.
8E\ 8G\ 8c\J	(8g/	.
8E\ 8G\ 8c\L	4f#/	.
8r	.	.
8E\ 8G\ 8c\J	8g/)	.
=97	=97	=97
8F\L	8a/L	.
8r	8r	.
8A\ 8c\J	(8a/J	.
8A\ 8c\L	4g#/	.
8r	.	.
8A\ 8c\J	8a/)	.
=98	=98	=98
8E\L	8a/L	.
8r	8r	.
8G\ 8A\ 8c#\J	(8a/J	.
8G\ 8A\ 8c#\L	4g#/	.
8r	.	.
8G\ 8A\ 8c#\J	8a/)	.
=99	=99	=99
8D\L	(4.a/	.
8r	.	.
8F\ 8A\ 8d\J	.	.
8F\ 8A\ 8d\L	4.ff\	.
8r	.	.
8F\ 8A\ 8d\J	.	.
=100	=100	=100
8E\L	4ee\	.
8r	.	.
8G\ 8A\ 8c#\J	8cc#\	.
8F\L	4dd\	.
8r	.	.
8A\ 8d\J	8a/	.
=101	=101	=101
8G\L	8g/L	.
8r	8r	.
8c\ 8e\J	8g/J	.
8c\ 8e\L	4f#/	.
8r	.	.
8c\ 8e\J	8g/)	.
=102	=102	=102
8G\ 8c\ 8e-\L	8f#/ 8a/L	.
8r	8r	.
8G\ 8c\ 8e-\J	8f#/ 8a/J	.
8G\ 8B\ 8d\L	8fn/ 8b/L	.
8r	8r	.
8G\ 8B\ 8d\J	8f/ 8g/J	.
=103	=103	=103
4C\ (4c\	4e/ 4cc/	.
8GG/ 8G/	8r	.
4FF#/ 4F#/	4r	.
8GG/ 8G/	8r	.
=104	=104	=104
4GGG/ 4GG/)	4r	.
8r	8gg\ 8ggg\	ff
4r	4ff#\ 4fff#\	.
8r	8gg\ 8ggg\	.
=105	=105	=105
4r	4g\ &(4gg\&)	.
(8GG/ 8G/	8r	.
4FF#/ 4F#/	4r	.
8GG/ 8G/	8r	.
=106	=106	=106
4GGG/) 4GG/	4r	.
8r	8gg\ 8ggg\	.
4r	4ff#\ 4fff#\	.
8r	8gg\ 8ggg\	.
=107	=107	=107
4r	4g\ &(4gg\&)	.
(8GG/ 8G/	8r	.
4FF#/ 4F#/	4r	.
8GG/ 8G/	8r	.
=108	=108	=108
4GGG/) 4GG/	4r	.
8r	8gg\ 8ggg\	.
4r	4ff#\ 4fff#\	.
8r	8gg\ &(8ggg\&)	.
=109	=109	=109
4r	4g\ 4gg\	.
8GG/ 8G/	8g\ 8gg\	<
4GG#/ 4G#/	4g#\ 4gg#\	.
8GG#/ 8G#/	8g#\ 8gg#\	.
=110	=110	=110
4AA\ 4A\	4a\ 4aa\	.
8AA\ 8A\	8a\ 8aa\	.
4AA#\ 4A#\	4a#\ 4aa#\	.
8AA#\ 8A#\	8a#\ 8aa#\	.
=111	=111	=111
4BB\ 4B\	4b\ 4bb\	.
8r	8r	.
4GG/ 4G/	4gg\ 4bb\ 4ddd\ 4ggg\	.
8r	8r	.
=112	=112	=112
2.r	4r	.
.	8gg\ (8ggg\	ff
.	4ff#\ 4fff#\	.
.	8gg\ 8ggg\	.
=113	=113	=113
8CC\ 8C\L	8ee\ 8eee\L)	.
8r	8r	.
8E\ 8G\ 8c\J	8gg\ 8ggg\J	.
8E\ 8G\ 8c\L	4ff#\ (4fff#\	.
8r	.	.
8E\ 8G\ 8c\J	8gg\ 8ggg\)	.
=114	=114	=114
8DD\ 8D\L	4.ffn\ 4.fffn\	.
8r	.	.
8F\ 8G\ 8B\J	.	.
8F\ 8G\ 8B\L	4.b\ 4.bb\	.
8r	.	.
8F\ 8G\ 8B\J	.	.
=115	=115	=115
8EE\ 8E\L	4.cc\ 4.ccc\	.
8r	.	.
8G\ 8c\J	.	.
8BBB\ 8BB\L	4.dd\ 4.ddd\	.
8r	.	.
8F\ 8G\ 8d\J	.	.
=116	=116	=116
8CC\ 8C\L	4ee\ 4eee\	.
8r	.	.
8E\ 8G\ 8c\J	8gg\ (8ggg\	.
8E\ 8G\ 8c\L	4ff#\ 4fff#\	.
8r	.	.
8E\ 8G\ 8c\J	8gg\ 8ggg\)	.
=117	=117	=117
8CC\ 8D\L	8ee'\L	.
8r	8gg'\	.
8E\ 8G\ 8c\J	8ccc'\J	.
8E\ 8G\ 8c\L	8eee'\L	.
8r	8ccc'\	.
8E\ 8G\ 8c\J	8gg'\J	.
=118	=118	=118
8DD\ 8D\L	4.ff\ 4.fff\	.
8r	.	.
8F\ 8G\ 8B\J	.	.
8F\ 8G\ 8B\L	4.b\ 4.bb\	.
8r	.	.
8F\ 8G\ 8B\J	.	.
=119	=119	=119
8EE\ 8E\L	[2.gg\ [2.ggg\	.
8r	.	.
8G\ 8c\J	.	.
8G\ 8c\L	.	.
8r	.	.
8G\ 8c\J	.	.
=120	=120	=120
8CC\ 8C\L	4gg\] 4ggg\]	.
8r	.	.
8E\ 8G\ 8c\J	8gg\ (8ggg\	.
8E\ 8G\ 8c\L	4ff#\ 4fff#\	.
8r	.	.
8E\ 8G\ 8c\J	8gg\ 8ggg\)	.
=121	=121	=121
8FF\ 8F\L	8a\ 8aa\L	.
8r	8r	.
8A\ 8c\J	8a\ (8aa\J	.
8A\ 8c\L	4g#\ 4gg#\	.
8r	.	.
8A\ 8c\J	8a\ 8aa\)	.
=122	=122	=122
8EE\ 8E\L	8a\ 8aa\L	.
8r	8r	.
8G\ 8A\ 8c#\J	8a\ (8aa\J	.
8G\ 8A\ 8c#\L	4g#\ 4gg#\	.
8r	.	.
8G\ 8A\ 8c#\J	8a\ 8aa\)	.
=123	=123	=123
8DD\ 8D\L	4.a\ 4.aa\	.
8r	.	.
8F\ 8A\ 8d\J	.	.
8F\ 8A\ 8d\L	4.ff\ 4.fff\	.
8r	.	.
8F\ 8A\ 8d\J	.	.
=124	=124	=124
8EE\ 8E\L	8ee\ 8eee\L	.
8r	8r	.
8G\ 8A\ 8c#\J	8cc#\ 8ccc#\J	.
8FF\ 8F\L	8dd\ 8ddd\L	.
8r	8r	.
8F\ 8A\ 8d\J	8a\ 8aa\J	.
=125	=125	=125
8GG\ 8G\L	8g\ 8gg\L	.
8r	8r	.
8G\ 8c\ 8e\J	8g\ (8gg\J	.
8G\ 8c\ 8e\L	4f#\ 4ff#\	.
8r	.	.
8G\ 8c\ 8e\J	8g\ 8gg\)	.
=126	=126	=126
8GG\L	8a\ 8ff#\ 8aa\L	.
8r	8r	.
8A\ 8c\ 8e-\J	8a\ 8ff#\ 8aa\J	.
8GG\L	8b\ 8ffn\ 8bb\L	.
8r	8r	.
8G\ 8B\ 8d\J	8b\ 8ff\ 8gg\J	.
=127	=127	=127
8C\ 8c\L	8cc\ 8ee\ 8ccc\	.
8r	8r	.
(8GG\ 8G\J	8r	.
4FF#/ 4F#/	4r	.
8GG/ 8G/	8r	.
=128	=128	=128
4GGG/) 4GG/	4r	.
8r	8gg\ 8ggg\	.
4r	4ff#\ 4fff#\	.
8r	8gg\ 8ggg\	.
=129	=129	=129
4r	4g\ &(4gg\&)	ff
(8GG/ 8G/	8r	.
4FF#/ 4F#/	4r	.
8GG/ 8G/	8r	.
=130	=130	=130
4GGG/) 4GG/	4r	.
8r	8gg\ 8ggg\	.
4r	4ff#\ 4fff#\	.
8r	8gg\ 8ggg\	.
=131	=131	=131
4r	4g\ &(4gg\&)	.
(8GG/ 8G/	8r	.
4FF#/ 4F#/	4r	.
8GG/ 8G/	8r	.
=132	=132	=132
4GGG/) 4GG/	4r	.
8r	8gg\ 8ggg\	.
4r	4ff#\ 4fff#\	.
8r	8gg\ &(8ggg\&)	.
=133	=133	=133
4r	4g\ 4gg\	.
8GG/ 8G/	8g\ 8gg\	<
4GG#/ 4G#/	4g#\ 4gg#\	.
8GG#/ 8G#/	8g#\ 8gg#\	.
=134	=134	=134
4AA\ 4A\	4a\ 4aa\	.
8AA\ 8A\	8a\ 8aa\	.
4AA#\ 4A#\	4a#\ 4aa#\	.
8AA#\ 8A#\	8a#\ 8aa#\	.
=135	=135	=135
4BB\ 4B\	4b\ 4bb\	.
8r	8r	.
4GG/ 4G/	4gg\ 4bb\ 4ddd\ 4ggg\	.
8r	8r	.
=136	=136	=136
2.r	4r	.
.	8gg\ (8ggg\	ff
.	4ff#\ 4fff#\	.
.	8gg\ 8ggg\	.
=137	=137	=137
8CC\ 8C\L	8ee\ 8eee\L)	.
8r	8r	.
8E\ 8G\ 8c\J	8gg\ 8ggg\J	.
8E\ 8G\ 8c\L	4ff#\ (4fff#\	.
8r	.	.
8E\ 8G\ 8c\J	8gg\ 8ggg\)	.
=138	=138	=138
8DD\ 8D\L	4.ffn\ 4.fffn\	.
8r	.	.
8F\ 8G\ 8B\J	.	.
8F\ 8G\ 8B\L	4.b\ 4.bb\	.
8r	.	.
8F\ 8G\ 8B\J	.	.
=139	=139	=139
8EE\ 8E\L	4.cc\ 4.ccc\	.
8r	.	.
8G\ 8c\J	.	.
8BBB\ 8BB\L	4.dd\ 4.ddd\	.
8r	.	.
8F\ 8G\ 8d\J	.	.
=140	=140	=140
8CC\ 8C\L	4ee\ 4eee\	.
8r	.	.
8E\ 8G\ 8c\J	8gg\ (8ggg\	.
8E\ 8G\ 8c\L	4ff#\ 4fff#\	.
8r	.	.
8E\ 8G\ 8c\J	8gg\ 8ggg\)	.
=141	=141	=141
8CC\ 8C\L	8ee'\L	.
8r	8gg'\	.
8E\ 8G\ 8c\J	8ccc'\J	.
8E\ 8G\ 8c\L	8eee'\L	.
8r	8ccc'\	.
8E\ 8G\ 8c\J	8gg'\J	.
=142	=142	=142
8DD\ 8D\L	4.ff\ 4.fff\	.
8r	.	.
8F\ 8G\ 8B\J	.	.
8F\ 8G\ 8B\L	4.b\ 4.bb\	.
8r	.	.
8F\ 8G\ 8B\J	.	.
=143	=143	=143
8EE\ 8E\L	[2.gg\ [2.ggg\	.
8r	.	.
8G\ 8c\J	.	.
8G\ 8c\L	.	.
8r	.	.
8G\ 8c\J	.	.
=144	=144	=144
8CC\ 8C\L	4gg\] 4ggg\]	.
8r	.	.
8E\ 8G\ 8c\J	8gg\ 8ggg\	.
8E\ 8G\ 8c\L	4ff#\ 4fff#\	.
8r	.	.
8E\ 8G\ 8c\J	8gg\ 8ggg\	.
=145	=145	=145
8FF\ 8F\L	8a\ 8aa\L	.
8r	8r	.
8A\ 8c\J	8a\ (8aa\J	.
8A\ 8c\L	4g#\ 4gg#\	.
8r	.	.
8A\ 8c\J	8a\ 8aa\)	.
=146	=146	=146
8EE\ 8E\L	8a\ 8aa\L	.
8r	8r	.
8G\ 8A\ 8c#\J	8a\ (8aa\J	.
8G\ 8A\ 8c#\L	4g#\ 4gg#\	.
8r	.	.
8G\ 8A\ 8c#\J	8a\ 8aa\)	.
=147	=147	=147
8DD\ 8D\L	4.a\ 4.aa\	.
8r	.	.
8F\ 8A\ 8d\J	.	.
8F\ 8A\ 8d\L	4.ff\ 4.fff\	.
8r	.	.
8F\ 8A\ 8d\J	.	.
=148	=148	=148
8EE\ 8E\L	8ee\ 8eee\L	.
8r	8r	.
8G\ 8A\ 8c#\J	8cc#\ 8ccc#\J	.
8FF\ 8F\L	8dd\ 8ddd\L	.
8r	8r	.
8F\ 8A\ 8d\J	8a\ 8aa\J	.
=149	=149	=149
8GG\ 8G\L	8g\ 8gg\L	.
8r	8r	.
8G\ 8c\ 8e\J	8g\ (8gg\J	.
8G\ 8c\ 8e\L	4f#\ 4ff#\	.
8r	.	.
8G\ 8c\ 8e\J	8g\ 8gg\)	.
=150	=150	=150
8GG\L	8a\ 8ff#\ 8aa\L	.
8r	8r	.
8A\ 8c\ 8e-\J	8a\ 8ff#\ 8aa\J	.
8GG\L	8b\ 8ffn\ 8bb\L	.
8r	8r	.
8G\ 8B\ 8d\J	8b\ 8ff\ 8gg\J	.
=151	=151	=151
4C\ 4c\	4cc\ 4ee\ 4ccc\	.
(8GG/ 8G/	8r	.
4FF#/) 4F#/	4r	.
8GG/ 8G/	8ff\ 8gg\ 8bb\	.
=152	=152	=152
4CC/ 4C/	4ee\ 4gg\ 4ccc\	.
8r	8r	.
4CC/ 4C/	4ee\ 4gg\ 4ccc\	.
8r	8r	.
==	==	==
*-	*-	*-
!!!ENC: Craig Stuart Sapp
!!!END: 2006/06/14/
